X: 1
T:Down to see the engines
M:4/4
L:1/8
Q:135
S:Roy Powell/insane buzzing
K:Em
|:E2 E FG AB d| E2 E FG AB d| E2 E FG AB d| B G B d F G E2:|1
|:E2 E FG FE B,| E2 E FG B F2| E2 E FG FE B2| D F A B F D E2:|1
